data/styles/clear/style-night/symbols/hostel-m.svg

<svg height="24" viewBox="0 0 24 24" width="24"><g fill="none" fill-rule="evenodd"><circle cx="12" cy="12" fill="#fff" opacity=".4" r="12"/><circle cx="12" cy="12" fill="#332721" r="11"/><path d="m18 8h1v11h-1v-1h-5.5-5.5v1h-1v-13h1v4h11zm-11 4v4h11v-4zm2 3c-.55228475 0-1-.4477153-1-1s.44771525-1 1-1 1 .4477153 1 1-.44771525 1-1 1zm2-1c0-.5522847.4509752-.9498916.990778-.8899136l4.018444.4464938c.5471916.0607991.990778.5614923.990778 1.1069635v.3364563h-6zm-2-5c-.55228475 0-1-.44771525-1-1s.44771525-1 1-1 1 .44771525 1 1-.44771525 1-1 1zm2-1c0-.55228475.4509752-.94989165.990778-.88991356l4.018444.44649379c.5471916.06079906.990778.56149228.990778 1.10696347v.3364563h-6z" fill="#fff" opacity=".6"/></g></svg>

<svg width="24" height="24" viewBox="0 0 24 24">
  <g fill="none" fill-rule="evenodd">
    <circle cx="12" cy="12" r="12" fill="#FFF" opacity=".4"/>
    <circle cx="12" cy="12" r="11" fill="#332721"/>
    <path fill="#FFF" d="M18,8 L19,8 L19,19 L18,19 L18,18 L12.5,18 L7,18 L7,19 L6,19 L6,6 L7,6 L7,10 L18,10 L18,8 Z M7,12 L7,16 L18,16 L18,12 L7,12 Z M9,15 C8.44771525,15 8,14.5522847 8,14 C8,13.4477153 8.44771525,13 9,13 C9.55228475,13 10,13.4477153 10,14 C10,14.5522847 9.55228475,15 9,15 Z M11,14 C11,13.4477153 11.4509752,13.0501084 11.990778,13.1100864 L16.009222,13.5565802 C16.5564136,13.6173793 17,14.1180725 17,14.6635437 L17,15 L11,15 L11,14 Z M9,9 C8.44771525,9 8,8.55228475 8,8 C8,7.44771525 8.44771525,7 9,7 C9.55228475,7 10,7.44771525 10,8 C10,8.55228475 9.55228475,9 9,9 Z M11,8 C11,7.44771525 11.4509752,7.05010835 11.990778,7.11008644 L16.009222,7.55658023 C16.5564136,7.61737929 17,8.11807251 17,8.6635437 L17,9 L11,9 L11,8 Z" opacity=".6"/>
  </g>
</svg>
